X:60
T: Graf und Nonne (Die Nonne)
N: Q01556
O: Osteuropa, Tschechoslowakei, Sudetenland, Zips
R: Ballade, Standesunterschied, vergebliche Werbung, Liebe, Klage
M: 6/8
L: 1/8
K: G
D | _B2BA2A | G3=F2
F | _B2Bc2c | d3z2
d | g2d_e2c | d3G2
A | _BBBA2A | G3z2
A | _BBBA2A | G3z2

